X:317
T: ES WAR EIN MARKGRAF AN DEM RHEIN
N: E0182
O: Europa, Mitteleuropa, Deutschland, Sueddeutschland
R: erzaehlendes Volks - Lied, Sage, Familien - Geschichte
M: 2/4
L: 1/16
K: G
D2 | G4A4 | B2d2c2B2 | A4z2
B2 | c2B2A2G2 | F2E2D2
D2 | G4A4 | B3cd2c2 | B4A4 | G4z2

@@@ Tune index: 3967
